X:1109
L:1/8
M:2/4
K:Amin
 A/B/ | cE ED/E/ | G/^F/G/A/ GE | A>G A/B/c/d/ | e3 c | de/f/ ge | dG{AG^F} Ge/d/ | cABG | A3 ||

